X:310
T:Richard Dwyer's
Z: id:dc-reel-287
M:C
L:1/8
K:A Dorian
A2EA cdec|dBGB AEGF|EAcA Bdgf|eaa^g aba=g|!
e=fed cAA2|gedc BdcB|AEcE dEcd|ecAG EAA2:|!
a2ea c'aea|g2dg bgdg|aged cded|cABG EAA2|!
a2ea c'aea|gage dBGB|ABcd eaaf|gedg eAA2:|!

